app/dist/common/images/c4-therapeutics.svg

<svg height="18" viewBox="0 0 18 18" width="18" xmlns="http://www.w3.org/2000/svg"><path d="m0 0h18v18h-18z" fill="#f0f3fa"/><circle cx="5" cy="5" fill="#c3cfca" r="1"/><circle cx="5" cy="13" fill="#c3cfca" r="1"/><path d="m7.2 7.5a1 1 0 1 1 -2 0 1 1 0 0 1 2 0zm0 2.9a1 1 0 1 1 -2 0 1 1 0 0 1 2 0z" fill="#3eb049"/><path d="m10 10.4a1 1 0 1 1 -2 0 1 1 0 0 1 2 0zm2.5 0a1 1 0 1 1 -2 0 1 1 0 0 1 2 0zm-2.5-2.9a1 1 0 1 1 -2 0 1 1 0 0 1 2 0zm2.5 0a1 1 0 1 1 -2 0 1 1 0 0 1 2 0z" fill="#1683c0"/><path d="m14 13a1 1 0 1 1 -2 0 1 1 0 0 1 2 0zm-2.75 0a1 1 0 1 1 -2 0 1 1 0 0 1 2 0zm-2.75 0a1 1 0 1 1 -2 0 1 1 0 0 1 2 0zm0-8a1 1 0 1 1 -2 0 1 1 0 0 1 2 0zm2.75 0a1 1 0 1 1 -2 0 1 1 0 0 1 2 0zm2.75 0a1 1 0 1 1 -2 0 1 1 0 0 1 2 0z" fill="#3eb049"/></svg>

<!-- by TradingView --><svg width="18" height="18" viewBox="0 0 18 18" xmlns="http://www.w3.org/2000/svg"><path fill="#F0F3FA" d="M0 0h18v18H0z"/><circle cx="5" cy="5" r="1" fill="#C3CFCA"/><circle cx="5" cy="13" r="1" fill="#C3CFCA"/><path d="M7.2 7.5a1 1 0 1 1-2 0 1 1 0 0 1 2 0ZM7.2 10.4a1 1 0 1 1-2 0 1 1 0 0 1 2 0Z" fill="#3EB049"/><path d="M10 10.4a1 1 0 1 1-2 0 1 1 0 0 1 2 0ZM12.5 10.4a1 1 0 1 1-2 0 1 1 0 0 1 2 0ZM10 7.5a1 1 0 1 1-2 0 1 1 0 0 1 2 0ZM12.5 7.5a1 1 0 1 1-2 0 1 1 0 0 1 2 0Z" fill="#1683C0"/><path d="M14 13a1 1 0 1 1-2 0 1 1 0 0 1 2 0ZM11.25 13a1 1 0 1 1-2 0 1 1 0 0 1 2 0ZM8.5 13a1 1 0 1 1-2 0 1 1 0 0 1 2 0ZM8.5 5a1 1 0 1 1-2 0 1 1 0 0 1 2 0ZM11.25 5a1 1 0 1 1-2 0 1 1 0 0 1 2 0ZM14 5a1 1 0 1 1-2 0 1 1 0 0 1 2 0Z" fill="#3EB049"/></svg>
